X:1080
T:The Maid of the Mill.
M:6/8
L:1/8
Q:3/8=104
Z:Jack Campin * www.campin.me.uk * 2009
K:D
A|Add dfd |cde  a2 d    |BBB (Bc)A| d3 z2
A|Add dfd |cde  a2 c    |BBB  B2 c| A3 d2
A|Aaa a>ba|agf  g2 f    |eef  g2 b|(d3 c2)
A|Bcd g2 e|cde Ha2(f/d/)|BBB  Bc`A| d3 z2|]<end>
<start>
